symbols/web/elevator/materialsymbolssharp/elevator_wght500gradN25fill1_40px.svg

<svg xmlns="http://www.w3.org/2000/svg" height="40" width="40"><path d="M11.917 30.208h4.875V23.25h1.666v-7.708H10.25v7.708h1.667Zm2.458-16.166q.917 0 1.583-.646.667-.646.667-1.604 0-.917-.667-1.584-.666-.666-1.583-.666-.958 0-1.604.666-.646.667-.646 1.584 0 .958.646 1.604.646.646 1.604.646Zm7.083 3.916h8.084L25.5 11.5ZM25.5 28.5l4.042-6.5h-8.084ZM4.958 35.042V4.958h30.084v30.084Z"/></svg>

<svg xmlns="http://www.w3.org/2000/svg" height="40" width="40"><path d="M11.917 30.208H16.792V23.25H18.458V15.542H10.25V23.25H11.917ZM14.375 14.042Q15.292 14.042 15.958 13.396Q16.625 12.75 16.625 11.792Q16.625 10.875 15.958 10.208Q15.292 9.542 14.375 9.542Q13.417 9.542 12.771 10.208Q12.125 10.875 12.125 11.792Q12.125 12.75 12.771 13.396Q13.417 14.042 14.375 14.042ZM21.458 17.958H29.542L25.5 11.5ZM25.5 28.5 29.542 22H21.458ZM4.958 35.042V4.958H35.042V35.042Z"/></svg>
